X: 21
T: Toss The Feathers
Z: lusoceltibero
S: https://thesession.org/tunes/138#setting46984
R: reel
M: 4/4
L: 1/8
K: Dmix
|:D2 (3FED AD FD|ABcA GE CE|D2 (3FED AD FD|dfed cAGE|
D2 (3FED AD FD|ABcA GE E2|cABG A2 AB|cd ed cAGE:|
|:Ad d2 Ad d2|Ad d2 ed^cd|eaag a3g|eaag ed^cd|
efge afge|=f2ed =cAAB|cABG A2AB|cded cAGE:|

